Origami/64x64/apps/color-picker.svg

<svg width="64" height="64" version="1.1" viewBox="0 0 64 64" xmlns="http://www.w3.org/2000/svg">
 <path d="m61.364176 14.417591c-0.249397 2.783967-1.506082 5.603534-3.761756 7.859107l-8.488099 8.484299c-4.700744 4.700945-11.84866 5.11994-16.02721 0.941389l-1.882798-1.882777c-1.69174-1.69178-2.615169-3.873755-2.820366-6.179527-0.273057 3.021364 0.644572 6.003929 2.820366 8.179503l1.882798 1.882778c4.17855 4.17855 11.326266 3.759555 16.02721-0.941389l8.488099-8.4843c2.800367-2.800167 4.066552-6.467123 3.761756-9.859083z" style="opacity:.2"/>
 <path d="m49.23032 26.417282c-0.194358 1.118387-0.693492 2.170174-1.531222 3.007764l-19.089574 19.093574c-1.573001 1.573181-2.810967 2.793967-4.949141 2.120975l-7.074117 7.070316c-2.350372 2.350372-7.2869133 1.197586-9.8982823-1.413983-1.3744638-1.374584-2.3253725-3.38916-2.5937693-5.335937-0.3588158 2.444771 0.7334713 5.475535 2.5937693 7.335913 2.611569 2.611569 7.5479103 3.764355 9.8982823 1.413983l7.074117-7.070316c2.138174 0.672992 3.37616-0.547793 4.949141-2.120975l19.089574-19.093574c1.327344-1.327184 1.808438-3.176962 1.531222-5.00774zm-36.913563 12.785048c-0.02119 0.062-0.02969 0.129999-0.04687 0.195998l0.07422-0.074c-0.0134-0.042-0.01544-0.08-0.02734-0.119999z" style="opacity:.2"/>
 <path d="m42.514399 16.61742c-2.611569-2.611569-6.606122-2.821767-8.956494-0.471395l-19.091574 19.091774c-1.573061 1.572982-2.794366 2.811567-2.121374 4.949542l-7.0709166 7.070916c-2.3503721 2.350572-1.1973658 7.287913 1.4142433 9.899482 2.611609 2.611569 7.5489103 3.764556 9.8992823 1.414184l7.070917-7.070917c2.138174 0.672992 3.37656-0.548193 4.949741-2.121374l19.091774-19.091774c2.350372-2.350172 2.140174-6.344925-0.471315-8.956494z" style="fill:#cccccc"/>
 <path d="m37.333984 14.615234c-1.40392 0.061008-2.746928 0.598666-3.77539 1.626954l-19.091797 19.089843c-1.403661 1.403717-2.504051 2.552326-2.25 4.300781 0.204964-1.225607 1.131337-2.182074 2.25-3.300781l19.091797-19.089843c1.175386-1.175187 2.760006-1.711001 4.378906-1.625 1.618981 0.085198 3.272381 0.787964 4.578125 2.09375l4.714844 4.714843c1.246839 1.246899 1.934216 2.806929 2.064453 4.353516 0.137627-1.856509-0.547188-3.836178-2.064453-5.353516l-4.714844-4.714843c-1.305744-1.305786-2.959144-2.008551-4.578125-2.09375-0.202362-0.01075-0.402956-0.010669-0.603516-0.001954zm-25.152343 25.830078l-6.9062504 6.910157c-0.9953822 0.995578-1.3436588 2.45711-1.234375 4.007812 0.0792896-1.166156 0.4571936-2.230478 1.234375-3.007812l6.9082034-6.91211c-0.023712-0.285277-0.012137-0.555224 0.033203-0.8125-0.008754-0.060459-0.029631-0.126502-0.035156-0.185547zm0.02539 1.236329c-0.038503 0.24172-0.045583 0.495282-0.023437 0.761718l0.162109-0.162109c-0.065877-0.209288-0.109081-0.407023-0.138672-0.599609z" style="fill:#ffffff;opacity:.2"/>
 <rect transform="matrix(.70710678 .70710678 -.70710678 .70710678 0 0)" x="33.21" y="-36.25" width="24" height="36" rx="10.666" ry="12" style="fill:#ffbc48"/>
 <path d="m49.921875 2.6171875c-3.228761-0.1219985-6.6488 1.1683314-9.292969 3.8125l-8.484375 8.4882815c-2.647766 2.647766-3.905822 6.066547-3.779297 9.298828 0.144867-2.925595 1.403779-5.92331 3.779297-8.298828l8.484375-8.4882815c2.644169-2.6441686 6.064208-3.9344985 9.292969-3.8125 2.511371 0.0941989 4.906296 1.0431155 6.734375 2.8710937l1.886719 1.8867188c1.80356 1.803378 2.72899 4.162482 2.841797 6.636719 0.122763-2.833527-0.796056-5.5911845-2.841797-7.636719l-1.886719-1.8867188c-1.828079-1.8279783-4.223004-2.7768948-6.734375-2.8710937z" style="fill:#ffffff;opacity:.2"/>
 <path d="m20.454661 19.017405c-0.489595 0.644392-0.509154 1.502382 0.02344 2.035175l23.335724 23.335724c0.587593 0.587593 1.585361 0.535794 2.238173-0.117999l4.714744-4.714744c0.641333-0.641392 0.695592-1.611781 0.140619-2.203174-0.05056 0.066-0.07952 0.141999-0.140619 0.203198l-4.714744 4.714744c-0.652892 0.652992-1.65066 0.704792-2.238173 0.117999l-23.335725-23.335724c-0.0104-0.02-0.0134-0.024-0.02344-0.036z" style="opacity:.2"/>
 <rect transform="matrix(.70710678 .70710678 -.70710678 .70710678 0 0)" x="27.21" y="-10.25" width="36" height="10" rx="1.5" ry="1.666" style="fill:#ffbc48"/>
 <rect transform="matrix(.70710678 .70710678 -.70710678 .70710678 0 0)" x="41.21" y="7.75" width="8" height="24" rx="4" ry="3" style="fill:#4e79ff"/>
 <path d="m26.455078 12.615234v0.001954c-0.404715 0.022-0.818095 0.198041-1.144531 0.523437l-4.714844 4.714844c-0.486267 0.486312-0.633941 1.160818-0.435547 1.716797 0.083131-0.256952 0.224606-0.505837 0.435547-0.716797l4.714844-4.714844c0.326436-0.325396 0.739816-0.501437 1.144531-0.523437v-0.001954c0.404736-0.0214 0.799954 0.112454 1.09375 0.40625l23.335938 23.335938c0.141814 0.141814 0.241571 0.308548 0.30664 0.486328 0.172227-0.528832 0.084658-1.09503-0.30664-1.486328l-23.335938-23.335938c-0.293796-0.293796-0.689014-0.42765-1.09375-0.40625z" style="fill:#ffffff;opacity:.2"/>
</svg>

<svg xmlns="http://www.w3.org/2000/svg" width="64" height="64" version="1.1" viewBox="0 0 64 64">
 <path style="opacity:0.2" d="m 61.364176,14.417591 c -0.249397,2.783967 -1.506082,5.603534 -3.761756,7.859107 l -8.488099,8.484299 c -4.700744,4.700945 -11.84866,5.11994 -16.02721,0.941389 l -1.882798,-1.882777 c -1.69174,-1.69178 -2.615169,-3.873755 -2.820366,-6.179527 -0.273057,3.021364 0.644572,6.003929 2.820366,8.179503 l 1.882798,1.882778 c 4.17855,4.17855 11.326266,3.759555 16.02721,-0.941389 l 8.488099,-8.4843 c 2.800367,-2.800167 4.066552,-6.467123 3.761756,-9.859083 z"/>
 <path style="opacity:0.2" d="m 49.23032,26.417282 c -0.194358,1.118387 -0.693492,2.170174 -1.531222,3.007764 L 28.609524,48.51862 c -1.573001,1.573181 -2.810967,2.793967 -4.949141,2.120975 l -7.074117,7.070316 c -2.350372,2.350372 -7.2869133,1.197586 -9.8982823,-1.413983 -1.3744638,-1.374584 -2.3253725,-3.38916 -2.5937693,-5.335937 -0.3588158,2.444771 0.7334713,5.475535 2.5937693,7.335913 2.611569,2.611569 7.5479103,3.764355 9.8982823,1.413983 l 7.074117,-7.070316 c 2.138174,0.672992 3.37616,-0.547793 4.949141,-2.120975 L 47.699098,31.425022 c 1.327344,-1.327184 1.808438,-3.176962 1.531222,-5.00774 z M 12.316757,39.20233 c -0.02119,0.062 -0.02969,0.129999 -0.04687,0.195998 l 0.07422,-0.074 c -0.0134,-0.042 -0.01544,-0.08 -0.02734,-0.119999 z"/>
 <path style="fill:#cccccc" d="M 42.514399,16.61742 C 39.90283,14.005851 35.908277,13.795653 33.557905,16.146025 L 14.466331,35.237799 c -1.573061,1.572982 -2.794366,2.811567 -2.121374,4.949542 l -7.0709166,7.070916 c -2.3503721,2.350572 -1.1973658,7.287913 1.4142433,9.899482 2.611609,2.611569 7.5489103,3.764556 9.8992823,1.414184 l 7.070917,-7.070917 c 2.138174,0.672992 3.37656,-0.548193 4.949741,-2.121374 L 47.699998,30.287858 c 2.350372,-2.350172 2.140174,-6.344925 -0.471315,-8.956494 z"/>
 <path style="opacity:0.2;fill:#ffffff" d="M 37.333984 14.615234 C 35.930064 14.676242 34.587056 15.2139 33.558594 16.242188 L 14.466797 35.332031 C 13.063136 36.735748 11.962746 37.884357 12.216797 39.632812 C 12.421761 38.407205 13.348134 37.450738 14.466797 36.332031 L 33.558594 17.242188 C 34.73398 16.067001 36.3186 15.531187 37.9375 15.617188 C 39.556481 15.702386 41.209881 16.405152 42.515625 17.710938 L 47.230469 22.425781 C 48.477308 23.67268 49.164685 25.23271 49.294922 26.779297 C 49.432549 24.922788 48.747734 22.943119 47.230469 21.425781 L 42.515625 16.710938 C 41.209881 15.405152 39.556481 14.702387 37.9375 14.617188 C 37.735138 14.606438 37.534544 14.606519 37.333984 14.615234 z M 12.181641 40.445312 L 5.2753906 47.355469 C 4.2800084 48.351047 3.9317318 49.812579 4.0410156 51.363281 C 4.1203052 50.197125 4.4982092 49.132803 5.2753906 48.355469 L 12.183594 41.443359 C 12.159882 41.158082 12.171457 40.888135 12.216797 40.630859 C 12.208043 40.5704 12.187166 40.504357 12.181641 40.445312 z M 12.207031 41.681641 C 12.168528 41.923361 12.161448 42.176923 12.183594 42.443359 L 12.345703 42.28125 C 12.279826 42.071962 12.236622 41.874227 12.207031 41.681641 z"/>
 <rect style="fill:#ffbc48" width="24" height="36" x="33.21" y="-36.25" rx="10.666" ry="12" transform="matrix(0.70710678,0.70710678,-0.70710678,0.70710678,0,0)"/>
 <path style="opacity:0.2;fill:#ffffff" d="M 49.921875 2.6171875 C 46.693114 2.495189 43.273075 3.7855189 40.628906 6.4296875 L 32.144531 14.917969 C 29.496765 17.565735 28.238709 20.984516 28.365234 24.216797 C 28.510101 21.291202 29.769013 18.293487 32.144531 15.917969 L 40.628906 7.4296875 C 43.273075 4.7855189 46.693114 3.495189 49.921875 3.6171875 C 52.433246 3.7113864 54.828171 4.660303 56.65625 6.4882812 L 58.542969 8.375 C 60.346529 10.178378 61.271959 12.537482 61.384766 15.011719 C 61.507529 12.178192 60.58871 9.4205345 58.542969 7.375 L 56.65625 5.4882812 C 54.828171 3.6603029 52.433246 2.7113864 49.921875 2.6171875 z"/>
 <path style="opacity:0.2" d="m 20.454661,19.017405 c -0.489595,0.644392 -0.509154,1.502382 0.02344,2.035175 l 23.335724,23.335724 c 0.587593,0.587593 1.585361,0.535794 2.238173,-0.117999 l 4.714744,-4.714744 c 0.641333,-0.641392 0.695592,-1.611781 0.140619,-2.203174 -0.05056,0.066 -0.07952,0.141999 -0.140619,0.203198 l -4.714744,4.714744 c -0.652892,0.652992 -1.65066,0.704792 -2.238173,0.117999 L 20.4781,19.052604 c -0.0104,-0.02 -0.0134,-0.024 -0.02344,-0.036 z"/>
 <rect style="fill:#ffbc48" width="36" height="10" x="27.21" y="-10.25" rx="1.5" ry="1.666" transform="matrix(0.70710678,0.70710678,-0.70710678,0.70710678,0,0)"/>
 <rect style="fill:#4e79ff" width="8" height="24" x="41.21" y="7.75" rx="4" ry="3" transform="matrix(0.70710678,0.70710678,-0.70710678,0.70710678,0,0)"/>
 <path style="opacity:0.2;fill:#ffffff" d="M 26.455078 12.615234 L 26.455078 12.617188 C 26.050363 12.639188 25.636983 12.815229 25.310547 13.140625 L 20.595703 17.855469 C 20.109436 18.341781 19.961762 19.016287 20.160156 19.572266 C 20.243287 19.315314 20.384762 19.066429 20.595703 18.855469 L 25.310547 14.140625 C 25.636983 13.815229 26.050363 13.639188 26.455078 13.617188 L 26.455078 13.615234 C 26.859814 13.593834 27.255032 13.727688 27.548828 14.021484 L 50.884766 37.357422 C 51.02658 37.499236 51.126337 37.66597 51.191406 37.84375 C 51.363633 37.314918 51.276064 36.74872 50.884766 36.357422 L 27.548828 13.021484 C 27.255032 12.727688 26.859814 12.593834 26.455078 12.615234 z"/>
</svg>
